svg/week-calendar.svg

<svg width="320" height="320" xmlns="http://www.w3.org/2000/svg" xmlns:xlink="http://www.w3.org/1999/xlink"><defs><symbol id="A" overflow="visible"><path d="m88.266-102.62-15.11 25.188c-4.742 8.137-8.876 16.312-12.406 24.531a153.4 153.4 0 0 0-8.375 25.359c-2.043 8.68-3.062 17.86-3.062 27.547h-24.657c0-10.156 1.285-19.973 3.86-29.453 2.582-9.488 6.313-19.148 11.188-28.984 4.883-9.844 13.754-24.336 26.61-43.484h-58.908v-19.984h80.86z"/></symbol></defs><path d="m21.164 104.78v177.71c0 12.305 9.9 22.21 22.215 22.21h233.24c12.305 0 22.215-9.906 22.215-22.21v-173.9l-2.184-3.81z" fill="#f5f5f5"/><path d="m43.38 27.04a22.17 22.17 0 0 0-22.215 22.215v55.53h275.49l2.184-3.414v-52.117a22.17 22.17 0 0 0-22.215-22.215z" fill="#009fff"/><path d="m21.164 104.78h275.49m-253.27-77.745h233.24a22.17 22.17 0 0 1 22.215 22.215v233.24c0 12.305-9.9 22.21-22.215 22.21h-233.24c-12.305 0-22.215-9.906-22.215-22.21v-233.24a22.17 22.17 0 0 1 22.215-22.215z" fill="none" stroke="#000" stroke-width="9.449"/><use x="41.297" y="260.316" fill="rgb(0%,62.352943%,100%)" xlink:href="#A"/><g fill="none" stroke-linecap="round"><g stroke-linejoin="round" stroke-width="11.817"><path d="M162.86 272.742h99.234M162.86 249.9h99.234" stroke="#009fff"/><path d="M162.86 227.078h99.234m-99.234-22.832h99.234M162.86 181.4h99.234m-99.234-22.822h99.234m-99.234-22.832h99.234" stroke="#000"/></g><path d="m91.375 12.664v57.5m134.87-57.5v57.5" stroke="#000" stroke-width="15.553"/></g></svg>

<svg xmlns="http://www.w3.org/2000/svg" xmlns:xlink="http://www.w3.org/1999/xlink" width="320" height="320"><defs><symbol overflow="visible" id="A"><path d="M88.266-102.625l-15.11 25.188C68.414-69.3 64.28-61.125 60.75-52.906a153.4 153.4 0 0 0-8.375 25.359C50.332-18.867 49.313-9.687 49.313 0H24.656c0-10.156 1.285-19.973 3.86-29.453 2.582-9.488 6.313-19.148 11.188-28.984 4.883-9.844 13.754-24.336 26.61-43.484H7.406v-19.984h80.86zm0 0" stroke="none"/></symbol></defs><path d="M21.164 104.785v177.71c0 12.305 9.9 22.21 22.215 22.21H276.62c12.305 0 22.215-9.906 22.215-22.21V108.594l-2.184-3.81zm0 0" fill="rgb(96.078432%,96.078432%,96.078432%)"/><path d="M43.38 27.04a22.17 22.17 0 0 0-22.215 22.215v55.53h275.488l2.184-3.414V49.254a22.17 22.17 0 0 0-22.215-22.215zm0 0" fill="rgb(0%,62.352943%,100%)"/><path d="M21.164 104.785h275.488M43.38 27.04H276.62a22.17 22.17 0 0 1 22.215 22.215v233.242c0 12.305-9.9 22.21-22.215 22.21H43.38c-12.305 0-22.215-9.906-22.215-22.21V49.254a22.17 22.17 0 0 1 22.215-22.215zm0 0" fill="none" stroke="rgb(0%,0%,0%)" stroke-width="9.449"/><use xlink:href="#A" x="41.297" y="260.316" fill="rgb(0%,62.352943%,100%)"/><g fill="none" stroke-linecap="round"><g stroke-linejoin="round"><path d="M162.86 272.742h99.234M162.86 249.9h99.234" stroke="rgb(0%,62.352943%,100%)" stroke-width="11.817"/><path d="M162.86 227.078h99.234m-99.234-22.832h99.234M162.86 181.4h99.234m-99.234-22.822h99.234m-99.234-22.832h99.234" stroke-width="11.817" stroke="rgb(0%,0%,0%)"/></g><path d="M91.375 12.664v57.5m134.867-57.5v57.5" stroke="rgb(0%,0%,0%)" stroke-width="15.553"/></g></svg>
